public/Group208.svg

<svg fill="none" height="78" viewBox="0 0 79 78" width="79" xmlns="http://www.w3.org/2000/svg" xmlns:xlink="http://www.w3.org/1999/xlink"><clipPath id="a"><path d="m0 0h28.9214v28.9214h-28.9214z" transform="matrix(.98162718 -.190809 .190809 .98162718 22.4641 27.2546)"/></clipPath><rect fill="#f08a4b" fill-opacity=".75" height="66" rx="16" transform="matrix(.98162718 -.190809 .190809 .98162718 -2.429933 .233976)" width="66.7416" y="12.7349"/><g clip-path="url(#a)"><path d="m46.5793 22.907c-.3237-.178-.8541-.3038-1.2895-.0023-.7859.7912 3.7901 2.5161 3.362 11.3457-.0911 1.8248-1.3235 1.1248-2.6517.9853-3.0296-.3388-6.121.0573-9.1422.3193-1.0674.087-2.1512.2134-3.2153.1311-1.1244-.0827-1.1821-.1317-1.1047-1.1587.5602-1.0847.0079-2.3147-.1307-2.8419.318-1.3388.3194-2.4475-.2278-2.9073-1.471-1.1839-.9553 2.5229-2.5086 2.8368-.7217.068-1.1748.2163-1.4234-.1329-.442-.6008-1.0966-1.3651-1.8025-1.6495-1.0876-.4512-.942 1.3517-.2107 2.9444.0709 1.0464.2991 1.7249.9659 2.3663.3393.3196.4876.7726.6546 1.198.2998.7368.5777 1.6707.7289 2.4485.0857.4411.4333 1.7952.5887 2.2228.7132 1.9335.8944 2.3079 2.6762 3.4795.7465.4935 1.8022.8424 2.3571 1.5899.4121.5705.8007 1.2058 1.1895 1.7807.7571 1.1058 1.3213 2.2732 1.7924 3.5189.2631.6717-1.3677 1.1452-.9018 2.0546.374.7466 2.4846.3243 2.4363-.606-.018-.5266.0452-1.5027.0237-2.2334.0985-2.778-1.0078-3.6352-.769-6.1874.0164-.9068 3.7451.1153 4.2703.3384 1.0645.4557 2.1737.7702 3.2452 1.2005 1.6594.6653.8003 1.6997-.0005 2.6625-.4295.5172-.425.5404-1.1045.5158-.5542-.0006-.909.4057-.9507.8114-.068.5794.7936.7975 1.3257.6218 1.603-.4923 3.5351-2.6388 3.9566-4.2508.5842.4647.4885 1.0254.3591 1.7855-.0575.3243-.1287.6393-.1745.9616-.0991.73-.3558.5872-.8882.8231-.7724.4272-.1661 1.5623.7123 1.2471.3044-.1074 1.4614-.4769 1.4831-1.0473.0107-.2551.1574-.8016.226-1.068.1381-.6533.9406-4.0862.1965-4.568-.3838-.2387-.7001-.5025-1.0162-.8266-.5003-.5292-.3398-.6326-.1023-1.2088.2444-.6018.436-1.2896.6295-1.9055.4277-1.4565-.3042-2.4949-.0436-4.3768.7701-6.0168-1.3613-12.0238-3.5212-13.2183z" fill="#fff"/></g></svg>

<svg width="79" height="78" viewBox="0 0 79 78" fill="none" xmlns="http://www.w3.org/2000/svg">
<rect y="12.7349" width="66.7416" height="66" rx="16" transform="rotate(-11 0 12.7349)" fill="#F08A4B" fill-opacity="0.75"/>
<g clip-path="url(#clip0_85_45)">
<path d="M46.5793 22.907C46.2556 22.729 45.7252 22.6032 45.2898 22.9047C44.5039 23.6959 49.0799 25.4208 48.6518 34.2504C48.5607 36.0752 47.3283 35.3752 46.0001 35.2357C42.9705 34.8969 39.8791 35.293 36.8579 35.555C35.7905 35.642 34.7067 35.7684 33.6426 35.6861C32.5182 35.6034 32.4605 35.5544 32.5379 34.5274C33.0981 33.4427 32.5458 32.2127 32.4072 31.6855C32.7252 30.3467 32.7266 29.238 32.1794 28.7782C30.7084 27.5943 31.2241 31.3011 29.6708 31.615C28.9491 31.683 28.496 31.8313 28.2474 31.4821C27.8054 30.8813 27.1508 30.117 26.4449 29.8326C25.3573 29.3814 25.5029 31.1843 26.2342 32.777C26.3051 33.8234 26.5333 34.5019 27.2001 35.1433C27.5394 35.4629 27.6877 35.9159 27.8547 36.3413C28.1545 37.0781 28.4324 38.012 28.5836 38.7898C28.6693 39.2309 29.0169 40.585 29.1723 41.0126C29.8855 42.9461 30.0667 43.3205 31.8485 44.4921C32.595 44.9856 33.6507 45.3345 34.2056 46.082C34.6177 46.6525 35.0063 47.2878 35.3951 47.8627C36.1522 48.9685 36.7164 50.1359 37.1875 51.3816C37.4506 52.0533 35.8198 52.5268 36.2857 53.4362C36.6597 54.1828 38.7703 53.7605 38.722 52.8302C38.704 52.3036 38.7672 51.3275 38.7457 50.5968C38.8442 47.8188 37.7379 46.9616 37.9767 44.4094C37.9931 43.5026 41.7218 44.5247 42.247 44.7478C43.3115 45.2035 44.4207 45.518 45.4922 45.9483C47.1516 46.6136 46.2925 47.648 45.4917 48.6108C45.0622 49.128 45.0667 49.1512 44.3872 49.1266C43.833 49.126 43.4782 49.5323 43.4365 49.938C43.3685 50.5174 44.2301 50.7355 44.7622 50.5598C46.3652 50.0675 48.2973 47.921 48.7188 46.309C49.303 46.7737 49.2073 47.3344 49.0779 48.0945C49.0204 48.4188 48.9492 48.7338 48.9034 49.0561C48.8043 49.7861 48.5476 49.6433 48.0152 49.8792C47.2428 50.3064 47.8491 51.4415 48.7275 51.1263C49.0319 51.0189 50.1889 50.6494 50.2106 50.079C50.2213 49.8239 50.368 49.2774 50.4366 49.011C50.5747 48.3577 51.3772 44.9248 50.6331 44.443C50.2493 44.2043 49.933 43.9405 49.6169 43.6164C49.1166 43.0872 49.2771 42.9838 49.5146 42.4076C49.759 41.8058 49.9506 41.118 50.1441 40.5021C50.5718 39.0456 49.8399 38.0072 50.1005 36.1253C50.8706 30.1085 48.7392 24.1015 46.5793 22.907Z" fill="white"/>
</g>
<defs>
<clipPath id="clip0_85_45">
<rect width="28.9214" height="28.9214" fill="white" transform="translate(22.4641 27.2546) rotate(-11)"/>
</clipPath>
</defs>
</svg>
